!!!COM: Gaspar van Weerbeke
!!!CDT: ~1450-~1517
!!!OTL: Stabat mater
!!!AGN: Motet
!!!SCT: Gas0420
!!!SCA: Gas0420
!!!voices: 5
**kern	**text	**kern	**text	**kern	**text	**kern	**text	**kern	**text
*part5	*part5	*part4	*part4	*part3	*part3	*part2	*part2	*part1	*part1
*staff5	*staff5	*staff4	*staff4	*staff3	*staff3	*staff2	*staff2	*staff1	*staff1
*I"Bassus	*	*I"Quintus	*	*I"Tenor	*	*I"Altus	*	*I"Superius	*
*I'B	*	*I'V	*	*I'T	*	*I'A	*	*I'S	*
*clefF4	*	*clefF4	*	*clefGv2	*	*clefGv2	*	*clefG2	*
*k[]	*	*k[]	*	*k[]	*	*k[]	*	*k[]	*
*M3/2	*	*M3/2	*	*M3/2	*	*M3/2	*	*M3/2	*
*met(O)	*	*met(O)	*	*met(O)	*	*met(O)	*	*met(O)	*
=1	=1	=1	=1	=1	=1	=1	=1	=1	=1
1.r	.	1E	Sta-	1.r	.	1B	Sta-	1e	Sta-
.	.	2E	-bat	.	.	2c	-bat	2e	-bat
=2	=2	=2	=2	=2	=2	=2	=2	=2	=2
1.r	.	1E	ma-	1.r	.	2.B	ma-	1g	ma-
.	.	.	.	.	.	2e	-ter	.	.
.	.	2C	-ter	.	.	.	.	4.g	-ter
.	.	.	.	.	.	8dL	.	.	.
.	.	.	.	.	.	8cJ	.	8f	.
=3	=3	=3	=3	=3	=3	=3	=3	=3	=3
1.r	.	2G	do-	1.r	.	2B	.	2d	.
.	.	4G	-lo-	.	.	4B	do-	4d	do-
.	.	2G	-ro-	.	.	4B	-lo-	4d	-lo-
.	.	.	.	.	.	4.B	-ro-	4.d	-ro-
.	.	4E	.	.	.	.	.	.	.
.	.	.	.	.	.	8c	.	8e	.
=4	=4	=4	=4	=4	=4	=4	=4	=4	=4
1.r	.	1D	-sa	1.r	.	2d	-sa	2f	.
.	.	.	.	.	.	4.d	iu-	2f	-sa
.	.	.	.	.	.	8c	.	.	.
.	.	4D	iu-	.	.	2A	-xta	4f	iu-
.	.	4D	-xta	.	.	.	.	4f	-xta
!!LO:LB:g=original
=5	=5	=5	=5	=5	=5	=5	=5	=5	=5
1.r	.	2.E	cru-	1.r	.	2G	cru-	2g	cru-
.	.	.	.	.	.	4B	.	4.g	-cem
.	.	4C	.	.	.	2c	-cem	.	.
.	.	.	.	.	.	.	.	8f	.
.	.	2G	-cem	.	.	.	.	2d	.
.	.	.	.	.	.	4B	.	.	.
=6	=6	=6	=6	=6	=6	=6	=6	=6	=6
1.r	.	4A	la-	1.r	.	4c	la-	4c	la-
.	.	4G	-cri-	.	.	4B	-cri-	4d	-cri-
.	.	4A	-mo-	.	.	4A	-mo-	4c	-mo-
.	.	4E	.	.	.	2B	.	2e	.
.	.	2F	.	.	.	.	.	.	.
.	.	.	.	.	.	4A	.	4d	.
=7	=7	=7	=7	=7	=7	=7	=7	=7	=7
1.r	.	2E	-sa,	1.r	.	2B	-sa,	2e	-sa,
.	.	4C	dum	.	.	4c	dum	4g	dum
.	.	4C	pen-	.	.	4c	pen-	4g	pen-
.	.	2F	-de-	.	.	2c	-de-	2a	-de-
=8	=8	=8	=8	=8	=8	=8	=8	=8	=8
1.r	.	4E	-bat	1.r	.	2c	-bat	4g	-bat
.	.	4A	fi-	.	.	.	.	4cc	fi-
.	.	4G	.	.	.	4d	fi-	4b	.
.	.	4F	-li-	.	.	4A	.	2a	.
.	.	2E	-us;	.	.	2B	-li-	.	.
.	.	.	.	.	.	.	.	4g#i	-li-
!!LO:LB:g=original
=9	=9	=9	=9	=9	=9	=9	=9	=9	=9
1.r	.	4F	cu-	1.r	.	2A	-us;	2a	-us;
.	.	4F	-ius	.	.	.	.	.	.
.	.	4G	a-	.	.	2r	.	2r	.
.	.	4A	-ni-	.	.	.	.	.	.
.	.	4A	-mam	.	.	4F	cu-	2r	.
.	.	8GL	.	.	.	4F	-ius	.	.
.	.	8FJ	.	.	.	.	.	.	.
=10	=10	=10	=10	=10	=10	=10	=10	=10	=10
1.r	.	4E	ge-	1.r	.	4G	a-	2r	.
.	.	4F	-men-	.	.	4A	-ni-	.	.
.	.	2D	-tem.	.	.	4A	-mam	4f	cu-
.	.	.	.	.	.	8GL	.	4f	-ius
.	.	.	.	.	.	8FJ	.	.	.
.	.	2r	.	.	.	4E	.	4g	a-
.	.	.	.	.	.	4C	ge-	4a	-ni-
=11	=11	=11	=11	=11	=11	=11	=11	=11	=11
1.r	.	1.r	.	1.r	.	2D	-men-	4a	-mam
.	.	.	.	.	.	.	.	8gL	.
.	.	.	.	.	.	.	.	8fJ	.
.	.	.	.	.	.	4C	-tem,	4e	.
.	.	.	.	.	.	2c	con-	4c	ge-
.	.	.	.	.	.	.	.	2d	-men-
.	.	.	.	.	.	4B	-tri-	.	.
=12	=12	=12	=12	=12	=12	=12	=12	=12	=12
1.r	.	1.r	.	1.r	.	8cL	-stan-	2c	-tem,
.	.	.	.	.	.	8B	.	.	.
.	.	.	.	.	.	8A	.	.	.
.	.	.	.	.	.	8GJ	.	.	.
.	.	.	.	.	.	2A	.	4r	.
.	.	.	.	.	.	.	.	2cc	con-
.	.	.	.	.	.	2G	-tem	.	.
.	.	.	.	.	.	.	.	4b	-tri-
!!LO:PB:g=original
=13	=13	=13	=13	=13	=13	=13	=13	=13	=13
1.r	.	1.r	.	1.r	.	4r	.	8ccL	-stan-
.	.	.	.	.	.	.	.	8b	.
.	.	.	.	.	.	2G	et	8a	.
.	.	.	.	.	.	.	.	8gJ	.
.	.	.	.	.	.	.	.	2a	.
.	.	.	.	.	.	4F	do-	.	.
.	.	.	.	.	.	8GL	-len-	2g	-tem
.	.	.	.	.	.	8F	.	.	.
.	.	.	.	.	.	8E	.	.	.
.	.	.	.	.	.	8DJ	.	.	.
=14	=14	=14	=14	=14	=14	=14	=14	=14	=14
1.r	.	1.r	.	1.r	.	2E	.	4r	.
.	.	.	.	.	.	.	.	2g	et
.	.	.	.	.	.	2D	-tem	.	.
.	.	.	.	.	.	.	.	4f	do-
.	.	.	.	.	.	4r	.	8gL	-len-
.	.	.	.	.	.	.	.	8f	.
.	.	.	.	.	.	[4d	per-	8e	.
.	.	.	.	.	.	.	.	8dJ	.
=15	=15	=15	=15	=15	=15	=15	=15	=15	=15
1.r	.	1.r	.	1.r	.	4d]	.	2e	.
.	.	.	.	.	.	4c	-trans-	.	.
.	.	.	.	.	.	8dL	-i-	4d	-tem
.	.	.	.	.	.	8c	.	.	.
.	.	.	.	.	.	8B	.	2a	per-
.	.	.	.	.	.	8AJ	.	.	.
.	.	.	.	.	.	2B	.	.	.
.	.	.	.	.	.	.	.	4g	-trans-
=16	=16	=16	=16	=16	=16	=16	=16	=16	=16
1.r	.	1.r	.	1.r	.	4A	-vit	4a	-i-
.	.	.	.	.	.	2A	gla-	8g	.
.	.	.	.	.	.	.	.	4f	-vit
.	.	.	.	.	.	.	.	8e	.
.	.	.	.	.	.	4G	.	2e	gla-
.	.	.	.	.	.	2F	-di-	.	.
.	.	.	.	.	.	.	.	4d	-di-
!!LO:LB:g=original
=17	=17	=17	=17	=17	=17	=17	=17	=17	=17
*	*edit	*	*	*	*	*	*	*	*
2AA	O	1E	O	1.r	.	1E	-us.	1e	-us.
2C	.	.	.	.	.	.	.	.	.
2BB	quam	2G	quam	.	.	2r	.	2r	.
=18	=18	=18	=18	=18	=18	=18	=18	=18	=18
4.AA	tri-	2A	tri-	1.r	.	1.r	.	1.r	.
8BB	.	.	.	.	.	.	.	.	.
8CL	.	2G	.	.	.	.	.	.	.
8DJ	.	.	.	.	.	.	.	.	.
2E	.	.	.	.	.	.	.	.	.
.	.	2F	-stis	.	.	.	.	.	.
4D	-stis	.	.	.	.	.	.	.	.
=19	=19	=19	=19	=19	=19	=19	=19	=19	=19
4C	et	4E	et	1.r	.	1.r	.	1.r	.
4.E	af-	2G	af-	.	.	.	.	.	.
8D	.	.	.	.	.	.	.	.	.
2C	-fli-	4E	.	.	.	.	.	.	.
.	.	2D	-fli-	.	.	.	.	.	.
4BB	.	.	.	.	.	.	.	.	.
=20	=20	=20	=20	=20	=20	=20	=20	=20	=20
1C	-cta	2C	-cta	1.r	.	1.r	.	1.r	.
.	.	2E	.	.	.	.	.	.	.
2GG	fu-	4D	fu-	.	.	.	.	.	.
.	.	4G	.	.	.	.	.	.	.
!!LO:LB:g=original
=21	=21	=21	=21	=21	=21	=21	=21	=21	=21
2AA	-it	4F	-it	1.r	.	1.r	.	1.r	.
.	.	2E	il-	.	.	.	.	.	.
2C	il-	.	.	.	.	.	.	.	.
.	.	4G	.	.	.	.	.	.	.
2E	-la	4C	-la	.	.	.	.	.	.
.	.	[4c	be-	.	.	.	.	.	.
=22	=22	=22	=22	=22	=22	=22	=22	=22	=22
4AA	be-	4c]	.	1.r	.	1.r	.	1.r	.
4GG	.	2B	-ne-	.	.	.	.	.	.
*lig	*	*	*	*	*	*	*	*	*
2AA	-ne-	.	.	.	.	.	.	.	.
.	.	2A	-di-	.	.	.	.	.	.
2BB	.	.	.	.	.	.	.	.	.
*Xlig	*	*	*	*	*	*	*	*	*
.	.	4G#j	.	.	.	.	.	.	.
=23	=23	=23	=23	=23	=23	=23	=23	=23	=23
4.AA	-di-	2A	-cta	1.r	.	1.r	.	1.r	.
8GG	.	.	.	.	.	.	.	.	.
2EE	-cta	2B	ma-	.	.	.	.	.	.
4r	.	4A	-ter	.	.	.	.	.	.
[4AA	ma-	[4c	u-	.	.	.	.	.	.
=24	=24	=24	=24	=24	=24	=24	=24	=24	=24
4AA]	.	4c]	.	1.r	.	1.r	.	1.r	.
4GG	-ter	4B	-ni-	.	.	.	.	.	.
4AA	u-	4A	-ge-	.	.	.	.	.	.
4BB	-ni-	8GL	.	.	.	.	.	.	.
.	.	8FJ	.	.	.	.	.	.	.
4.C	-ge-	4.E	-ni-	.	.	.	.	.	.
8BB	.	8C	.	.	.	.	.	.	.
!!LO:PB:g=original
=25	=25	=25	=25	=25	=25	=25	=25	=25	=25
4GG	-ni-	8DL	.	1.r	.	1.r	.	1.r	.
.	.	8CJ	.	.	.	.	.	.	.
4AA	.	2F	.	.	.	.	.	.	.
*lig	*	*	*	*	*	*	*	*	*
2EE	.	.	.	.	.	.	.	.	.
.	.	2E	.	.	.	.	.	.	.
2FF	.	.	.	.	.	.	.	.	.
*Xlig	*	*	*	*	*	*	*	*	*
.	.	4D	.	.	.	.	.	.	.
=26	=26	=26	=26	=26	=26	=26	=26	=26	=26
2EE	.	[1.E	-ti!	1.r	.	2B	Que	2g	Que
*col	*	*	*	*	*	*	*	*	*
4.EE	.	.	.	.	.	4B	me-	4g	me-
.	.	.	.	.	.	2B	-re-	2g	-re-
8FF	.	.	.	.	.	.	.	.	.
*Xcol	*	*	*	*	*	*	*	*	*
4GG	.	.	.	.	.	.	.	.	.
[4AA	.	.	.	.	.	4c	-bat	[4e	-bat
=27	=27	=27	=27	=27	=27	=27	=27	=27	=27
4AA]	.	1.E]	.	1.r	.	4c	et	4e]	.
4GG	.	.	.	.	.	4B	do-	4g	et
2AA	.	.	.	.	.	2c	-le-	4e	do-
.	.	.	.	.	.	.	.	2a	-le-
2EE	-ti!	.	.	.	.	2B	-bat,	.	.
.	.	.	.	.	.	.	.	4g	-bat,
=28	=28	=28	=28	=28	=28	=28	=28	=28	=28
1.r	.	1.r	.	1.r	.	4A	dum	4f	dum
.	.	.	.	.	.	4A	vi-	2e	vi-
.	.	.	.	.	.	2c	-de-	.	.
*	*	*	*	*	*	*	*	*col	*
.	.	.	.	.	.	.	.	4.g	-de-
.	.	.	.	.	.	4G	-bat	.	.
.	.	.	.	.	.	.	.	8f	.
*	*	*	*	*	*	*	*	*Xcol	*
.	.	.	.	.	.	[4c	na-	4e	-bat
!!LO:LB:g=original
=29	=29	=29	=29	=29	=29	=29	=29	=29	=29
1.r	.	1.r	.	1.r	.	4c]	.	2d	na-
.	.	.	.	.	.	4B	-ti	.	.
.	.	.	.	.	.	4.c	pe-	8AL	-ti
.	.	.	.	.	.	.	.	8B	.
.	.	.	.	.	.	.	.	8c	.
.	.	.	.	.	.	8B	.	8dJ	.
.	.	.	.	.	.	8AL	.	4e	pe-
.	.	.	.	.	.	8GJ	.	.	.
.	.	.	.	.	.	[4A	.	4f	.
=30	=30	=30	=30	=30	=30	=30	=30	=30	=30
1.r	.	1.r	.	1.r	.	4A]	.	4f	-nas
.	.	.	.	.	.	2E	-nas	2g	in-
.	.	.	.	.	.	4G	in-	2e	.
.	.	.	.	.	.	2F	-cli-	.	.
.	.	.	.	.	.	.	.	4d	-cli-
=31	=31	=31	=31	=31	=31	=31	=31	=31	=31
2r	.	2r	.	[1.E	Vi-	2E	-ti.	1e	-ti.
2r	.	2r	.	.	.	2B	Quis	.	.
2AA	Quis	2A	Quis	.	.	4c	est	2r	.
.	.	.	.	.	.	[4A	ho-	.	.
=32	=32	=32	=32	=32	=32	=32	=32	=32	=32
2AA	est	2c	est	1.E]	.	4A]	.	2e	Quis
.	.	.	.	.	.	8GL	.	.	.
.	.	.	.	.	.	8FJ	.	.	.
2AA	ho-	2A	ho-	.	.	2E	-mo	2e	est
2EE	-mo	2G	-mo	.	.	2B	qui	2g	ho-
!!LO:LB:g=original
=33	=33	=33	=33	=33	=33	=33	=33	=33	=33
*	*	*	*	*lig	*	*	*	*	*
2.AA	qui	4C	qui	1.E	-di	2c	non	2a	-mo
.	.	4C	non	.	.	.	.	.	.
.	.	8CL	fle-	.	.	2.c	fle-	2.cc	qui
.	.	8D	.	.	.	.	.	.	.
4AA	non	8E	.	.	.	.	.	.	.
.	.	8FJ	.	.	.	.	.	.	.
2C	fle-	2G	-ret,	.	.	.	.	.	.
.	.	.	.	.	.	4c	-ret,	4cc	non
=34	=34	=34	=34	=34	=34	=34	=34	=34	=34
1GG	-ret,	1G	Chri-	1D	.	2.d	Chri-	2b	fle-
*	*	*	*	*Xlig	*	*	*	*	*
.	.	.	.	.	.	.	.	2b	-ret,
.	.	.	.	.	.	4d	-sti	.	.
2GG	Chri-	2D	-sti	2G	spe-	2d	ma-	2b	Chri-
=35	=35	=35	=35	=35	=35	=35	=35	=35	=35
*	*	*	*	*lig	*	*	*	*	*
2D	-sti	4F	ma-	1.A	-ci-	1.d	-trem	4a	-sti
.	.	4D	.	.	.	.	.	2f	ma-
2.D	ma-	2F	-trem	.	.	.	.	.	.
.	.	.	.	.	.	.	.	2a	-trem
.	.	4r	.	.	.	.	.	.	.
4D	-trem	4D	si	.	.	.	.	8gL	.
.	.	.	.	.	.	.	.	8fJ	.
=36	=36	=36	=36	=36	=36	=36	=36	=36	=36
4C	si	4E	vi-	1.c	.	4G	si	4e	si
*	*	*col	*	*Xlig	*	*	*	*	*
4C	vi-	4.E	-de-	.	.	4G	vi-	2g	vi-
2C	-de-	.	.	.	.	2c	-de-	.	.
.	.	8D	.	.	.	.	.	.	.
*	*	*Xcol	*	*	*	*	*	*	*
.	.	4E	.	.	.	.	.	4g	-de-
2FF	-ret	2F	-ret	.	.	2A	-ret	2a	.
!!LO:PB:g=original
=37	=37	=37	=37	=37	=37	=37	=37	=37	=37
*	*	*	*	*col	*	*	*	*	*
4r	.	4C	in	[1.c	-o-	4e	in	2g	-ret
*col	*	*	*	*	*	*	*	*	*
4.C	in	2E	tan-	.	.	4e	tan-	.	.
.	.	.	.	.	.	8eL	-to	4r	.
8BBL	.	.	.	.	.	8d	.	.	.
*Xcol	*	*	*	*	*	*	*	*	*
8AA	.	4F	-to	.	.	8c	.	4a	in
8GGJ	.	.	.	.	.	8BJ	.	.	.
4FF	.	4F	sup-	.	.	4A	.	4a	tan-
4FF	tan-	[4A	-pli-	.	.	4A	sup-	[4cc	-to
=38	=38	=38	=38	=38	=38	=38	=38	=38	=38
4FF	-to	4A]	.	2c]	.	4F	-pli-	4cc]	.
4FF	sup-	4A	-ci-	.	.	4F	-ci-	4a	sup-
*	*	*col	*	*	*	*	*	*	*
4GG	-pli-	4.G	.	1B	.	2D	-o?	4b	-pli-
*	*	*	*	*Xcol	*	*	*	*	*
4GG	-ci-	.	.	.	.	.	.	4g	-ci-
.	.	8F	.	.	.	.	.	.	.
*	*	*Xcol	*	*	*	*	*	*	*
2GG	-o?	2D	-o?	.	.	2d	Quis	2g	-o?
=39	=39	=39	=39	=39	=39	=39	=39	=39	=39
4r	.	2C	Quis	[1.c	-sam	2e	non	4r	.
4C	Quis	.	.	.	.	.	.	4g	Quis
4AA	non	4C	non	.	.	2e	pos-	4a	non
2C	pos-	2E	pos-	.	.	.	.	2g	pos-
.	.	.	.	.	.	4e	-set	.	.
4FF	-set	4F	-set	.	.	4A	con-	4a	-set
=40	=40	=40	=40	=40	=40	=40	=40	=40	=40
4C	con-	4E	con-	1.c]	.	2e	-tri-	4g	con-
4AA	-tri-	4C	-tri-	.	.	.	.	4a	-tri-
2C	-sta-	2E	-sta-	.	.	2e	-sta-	2g	-sta-
2FF	-ri,	2F	-ri,	.	.	2A	-ri,	2a	-ri,
!!LO:LB:g=original
=41	=41	=41	=41	=41	=41	=41	=41	=41	=41
*	*	*	*	*lig	*	*	*	*	*
2r	.	4A	pi-	2c	sic-	2r	.	4a	pi-
.	.	4A	-am	.	.	.	.	4a	-am
4GG	pi-	2G	ma-	2d	.	4D	pi-	2b	ma-
*	*	*	*	*Xlig	*	*	*	*	*
4GG	-am	.	.	.	.	4D	-am	.	.
*col	*	*	*	*	*	*	*	*	*
4.AA	ma-	2E	-trem	2c	-ut	4.A	ma-	4.cc	.
8BB	.	.	.	.	.	8G	.	8b	.
*Xcol	*	*	*	*	*	*	*	*	*
=42	=42	=42	=42	=42	=42	=42	=42	=42	=42
4C	-trem	2C	con-	4c	co-	4E	-trem	4g	-trem
4FF	con-	.	.	2c	-lum-	4F	con-	4a	con-
4FF	-tem-	4F	-tem-	.	.	4A	-tem-	4a	-tem-
4GG	-pla-	8DL	-pla-	4B	.	4B	-pla-	2g	-pla-
.	.	8EJ	.	.	.	.	.	.	.
2D	.	4F	.	2A	.	2d	.	.	.
.	.	4D	.	.	.	.	.	4f#i	.
=43	=43	=43	=43	=43	=43	=43	=43	=43	=43
2GG	-ri	2D	-ri	1G	-bam,	2B	-ri	2g	-ri
4r	.	2C	do-	.	.	4c	do-	4e	do-
4C	do-	.	.	.	.	2c	-len-	2g	-len-
4E	-len-	4C	-len-	2r	.	.	.	.	.
4D	-tem	4F	-tem	.	.	4d	-tem	4f	-tem
=44	=44	=44	=44	=44	=44	=44	=44	=44	=44
4C	cum	4G	cum	2%3r	.	2e	cum	4e	cum
2AA	fi-	2A	fi-	.	.	.	.	8cL	fi-
.	.	.	.	.	.	.	.	8dJ	.
.	.	.	.	.	.	2c	fi-	8eL	.
.	.	.	.	.	.	.	.	8fJ	.
4C	-li-	4G	.	.	.	.	.	2e	.
2D	-o?	2F	-li-	.	.	4.A	-li-	.	.
.	.	.	.	.	.	.	.	4d	-li-
.	.	.	.	.	.	8G	.	.	.
!!LO:LB:g=original
=45	=45	=45	=45	=45	=45	=45	=45	=45	=45
1.r	.	1E	-o?	[1.G	a-	1B	-o?	1e	-o?
.	.	4B	Pro	.	.	2d	Pro	2r	.
.	.	4B	pec-	.	.	.	.	.	.
=46	=46	=46	=46	=46	=46	=46	=46	=46	=46
*	*	*col	*	*	*	*	*	*	*
4C	Pro	4.c	-ca-	1.G]	.	4e	pec-	4g	Pro
4C	pec-	.	.	.	.	2e	-ca-	4g	pec-
.	.	8B	.	.	.	.	.	.	.
*	*	*Xcol	*	*	*	*	*	*col	*
2C	-ca-	4G	-tis	.	.	.	.	4.g	-ca-
.	.	4C	su-	.	.	4e	-tis	.	.
.	.	.	.	.	.	.	.	8a	.
*	*	*	*	*	*	*	*	*Xcol	*
2BB	-tis	2D	.	.	.	2d	su-	2b	-tis
=47	=47	=47	=47	=47	=47	=47	=47	=47	=47
4AA	su-	2E	-e	1A	-scen-	4c	-e	2cc	su-
*col	*	*	*	*	*	*	*	*	*
4.C	-e	.	.	.	.	4.A	gen-	.	.
.	.	2r	.	.	.	.	.	4cc	-e
8BBL	.	.	.	.	.	8GL	.	.	.
*Xcol	*	*	*	*	*	*	*	*	*
8AA	.	.	.	.	.	8F	.	4.cc	gen-
8GGJ	.	.	.	.	.	8EJ	.	.	.
2AA	gen-	2C	gen-	2c	-den-	2F	.	.	.
.	.	.	.	.	.	.	.	8b	.
.	.	.	.	.	.	.	.	4a	.
=48	=48	=48	=48	=48	=48	=48	=48	=48	=48
1GG	-tis,	1D	-tis,	1B	-tem	2G	-tis,	2d	-tis,
.	.	.	.	.	.	2d	vi-	4r	.
.	.	.	.	.	.	.	.	2g	vi-
4C	vi-	4E	vi-	2r	.	4c	-dit	.	.
4AA	-dit	4F	-dit	.	.	4c	Je-	4a	-dit
!!LO:PB:g=original
=49	=49	=49	=49	=49	=49	=49	=49	=49	=49
*	*	*	*	*lig	*	*	*	*	*
2GG	Je-	4.G	Je-	1.G	de-	4B	-sum	2.b	Je-
.	.	.	.	.	.	2d	in	.	.
.	.	8F	.	.	.	.	.	.	.
4BB	-sum	4D	-sum	.	.	.	.	.	.
4C	.	4E	.	.	.	4c	tor-	4g	-sum
2E	in	2r	.	.	.	4B	-men-	4g	in
.	.	.	.	.	.	4c	.	8fL	.
.	.	.	.	.	.	.	.	8eJ	.
=50	=50	=50	=50	=50	=50	=50	=50	=50	=50
1D	tor-	4r	.	1.A	.	[1.d	-tis	4f	tor-
*	*	*	*	*Xlig	*	*	*	*	*
.	.	4D	in	.	.	.	.	2a	-men-
.	.	4F	tor-	.	.	.	.	.	.
.	.	4G	.	.	.	.	.	2g	.
2D	-men-	2A	-men-	.	.	.	.	.	.
.	.	.	.	.	.	.	.	4f#i	.
=51	=51	=51	=51	=51	=51	=51	=51	=51	=51
1GG	-tis.	2B	-tis.	1G	-su-	1d]	.	1g	-tis.
.	.	2r	.	.	.	.	.	.	.
2r	.	2r	.	2G	-per	2d	et	2r	.
=52	=52	=52	=52	=52	=52	=52	=52	=52	=52
1.r	.	1.r	.	4A	ri-	4c	fla-	1.r	.
.	.	.	.	4.B	.	2d	-gel-	.	.
.	.	.	.	8A	.	.	.	.	.
.	.	.	.	2G	.	4B	.	.	.
.	.	.	.	.	.	2A	-lis	.	.
.	.	.	.	4F#j	.	.	.	.	.
=53	=53	=53	=53	=53	=53	=53	=53	=53	=53
1.r	.	1.r	.	1G	-vos	8GL	sub-	1.r	.
.	.	.	.	.	.	8A	.	.	.
.	.	.	.	.	.	8B	.	.	.
.	.	.	.	.	.	8cJ	.	.	.
.	.	.	.	.	.	4d	.	.	.
.	.	.	.	.	.	4e	.	.	.
.	.	.	.	2G	a-	4d	.	.	.
.	.	.	.	.	.	8cL	.	.	.
.	.	.	.	.	.	8BJ	.	.	.
!!LO:LB:g=original
=54	=54	=54	=54	=54	=54	=54	=54	=54	=54
1.r	.	1.r	.	4A	-qua-	4c	.	1.r	.
.	.	.	.	4G	.	2e	.	.	.
.	.	.	.	4A	.	.	.	.	.
.	.	.	.	4F	.	2d	.	.	.
.	.	.	.	2E	.	.	.	.	.
.	.	.	.	.	.	4c#i	-di-	.	.
=55	=55	=55	=55	=55	=55	=55	=55	=55	=55
1.r	.	1.r	.	1D	-rum,	2d	-tum.	2.f	Vi-
.	.	.	.	.	.	2d	Vi-	.	.
.	.	.	.	.	.	.	.	4f	-dit
.	.	.	.	2r	.	4B	-dit	2g	su-
.	.	.	.	.	.	[4c	su-	.	.
=56	=56	=56	=56	=56	=56	=56	=56	=56	=56
1.r	.	1.r	.	1.r	.	4c]	.	4a	-um
.	.	.	.	.	.	2A	-um	2cc	dul-
.	.	.	.	.	.	2d	dul-	4.b	-cem
.	.	.	.	.	.	.	.	8aL	.
.	.	.	.	.	.	[4e	-cem	8g	.
.	.	.	.	.	.	.	.	8fJ	.
=57	=57	=57	=57	=57	=57	=57	=57	=57	=57
1.r	.	1.r	.	1.r	.	8e]L	.	4.e	na-
.	.	.	.	.	.	8dJ	.	.	.
.	.	.	.	.	.	4c	.	.	.
.	.	.	.	.	.	.	.	8f	.
.	.	.	.	.	.	4B	na-	4g	.
.	.	.	.	.	.	4A	.	2a	.
.	.	.	.	.	.	2B	.	.	.
.	.	.	.	.	.	.	.	4g#i	.
=58	=58	=58	=58	=58	=58	=58	=58	=58	=58
1.r	.	1.r	.	1.r	.	2.A	-tum	2a	-tum
.	.	.	.	.	.	.	.	4r	.
.	.	.	.	.	.	2d	mo-	2f	mo-
.	.	.	.	.	.	4c	-ri-	4e	-ri-
!!LO:LB:g=original
=59	=59	=59	=59	=59	=59	=59	=59	=59	=59
1.r	.	1.r	.	1.r	.	2d	-en-	2f	-en-
.	.	.	.	.	.	1A	-tem,	1e	-tem,
=60	=60	=60	=60	=60	=60	=60	=60	=60	=60
1.r	.	1.r	.	1.r	.	4B	de-	4d	de-
.	.	.	.	.	.	4c	-so-	4e	-so-
.	.	.	.	.	.	4B	-la-	4d	-la-
.	.	.	.	.	.	4G	.	2g	.
.	.	.	.	.	.	2A	.	.	.
.	.	.	.	.	.	.	.	4f#i	.
=61	=61	=61	=61	=61	=61	=61	=61	=61	=61
1.r	.	1.r	.	1.r	.	4G	-tum,	2g	-tum,
.	.	.	.	.	.	2c	cum	.	.
.	.	.	.	.	.	.	.	4.e	cum
.	.	.	.	.	.	4A	e-	.	.
.	.	.	.	.	.	.	.	8f	.
.	.	.	.	.	.	4B	-mi-	4g	e-
.	.	.	.	.	.	4c	-sit	4g	-mi-
=62	=62	=62	=62	=62	=62	=62	=62	=62	=62
1.r	.	1.r	.	1.r	.	4F	spi-	4a	-sit
.	.	.	.	.	.	8G	.	8g	.
.	.	.	.	.	.	4A	.	4f	spi-
.	.	.	.	.	.	8G	.	8e	.
.	.	.	.	.	.	4E	.	2e	-ri-
.	.	.	.	.	.	2F	-ri-	.	.
.	.	.	.	.	.	.	.	4d	.
=63	=63	=63	=63	=63	=63	=63	=63	=63	=63
1AA	E-	1A	E-	1.r	.	1E	-tum.	1e	-tum.
2C	-ya,	4G	-ya,	.	.	2r	.	2r	.
.	.	[4A	ma-	.	.	.	.	.	.
!!LO:PB:g=original
=64	=64	=64	=64	=64	=64	=64	=64	=64	=64
2D	ma-	8A]L	.	1.r	.	1.r	.	1.r	.
.	.	8GJ	.	.	.	.	.	.	.
.	.	4F	.	.	.	.	.	.	.
2C	-ter,	2E	-ter,	.	.	.	.	.	.
4r	.	2G	fons	.	.	.	.	.	.
4E	fons	.	.	.	.	.	.	.	.
=65	=65	=65	=65	=65	=65	=65	=65	=65	=65
4F	a-	4A	a-	1.r	.	1.r	.	1.r	.
8EL	.	2c	-mo-	.	.	.	.	.	.
8DJ	.	.	.	.	.	.	.	.	.
4C	-mo-	.	.	.	.	.	.	.	.
4.GG	.	4.B	.	.	.	.	.	.	.
8AA	.	8AL	.	.	.	.	.	.	.
[4BB	.	8G	.	.	.	.	.	.	.
.	.	8FJ	.	.	.	.	.	.	.
=66	=66	=66	=66	=66	=66	=66	=66	=66	=66
8BB]L	.	4.G	.	1.r	.	1.r	.	1.r	.
16AAL	.	.	.	.	.	.	.	.	.
16GGJJ	.	.	.	.	.	.	.	.	.
2C	.	.	.	.	.	.	.	.	.
.	.	8F	.	.	.	.	.	.	.
.	.	2D	.	.	.	.	.	.	.
4BB	.	.	.	.	.	.	.	.	.
2AA	-ris,	4C	-ris,	.	.	.	.	.	.
.	.	4c	me	.	.	.	.	.	.
=67	=67	=67	=67	=67	=67	=67	=67	=67	=67
4GG	me	4B	sen-	1.r	.	1.r	.	1.r	.
4FF	sen-	4.A	-ti-	.	.	.	.	.	.
4C	-ti-	.	.	.	.	.	.	.	.
.	.	8GL	.	.	.	.	.	.	.
4AA	.	8F	.	.	.	.	.	.	.
.	.	8EJ	.	.	.	.	.	.	.
4D	-re	4D	-re	.	.	.	.	.	.
4BB	vim	4G	vim	.	.	.	.	.	.
!!LO:LB:g=original
=68	=68	=68	=68	=68	=68	=68	=68	=68	=68
4C	do-	4E	do-	1.r	.	1.r	.	1.r	.
2AA	-lo-	2F	-lo-	.	.	.	.	.	.
4GG	.	2E	.	.	.	.	.	.	.
2FF	.	.	.	.	.	.	.	.	.
.	.	4D	.	.	.	.	.	.	.
=69	=69	=69	=69	=69	=69	=69	=69	=69	=69
1EE	-ris	1E	-ris	1.G	cu-	1B	Fac	1g	Fac
2r	.	[2C	fac	.	.	2c	ut	2g	ut
=70	=70	=70	=70	=70	=70	=70	=70	=70	=70
*	*	*	*	*lig	*	*	*	*	*
2FF	fac	4C]	.	1.A	-ius	4c	te-	2.cc	te-
.	.	4C	ut	.	.	4c	-cum	.	.
4FF	ut	4C	te-	.	.	4f	lu-	.	.
2FF	te-	4C	-cum	.	.	4f	-ge-	4cc	-cum
.	.	4F	lu-	.	.	4.f	-am.	2a	lu-
4FF	-cum	4F	-ge-	.	.	.	.	.	.
.	.	.	.	.	.	8e	.	.	.
=71	=71	=71	=71	=71	=71	=71	=71	=71	=71
2.FF	lu-	2.F	-am.	1c	.	2c	.	4a	-ge-
*	*	*	*	*Xlig	*	*	*	*	*
.	.	.	.	.	.	.	.	2a	-am.
.	.	.	.	.	.	2f	Fac	.	.
4FF	-ge-	8EL	.	.	.	.	.	8gL	.
.	.	8DJ	.	.	.	.	.	8fJ	.
2C	-am.	2C	.	2c	in-	2e	ut	2g	.
!!LO:LB:g=original
=72	=72	=72	=72	=72	=72	=72	=72	=72	=72
1.r	.	2C	Fac	1c	-e-	4e	ar-	2g	Fac
.	.	.	.	.	.	4e	-de-	.	.
.	.	2C	ut	.	.	4.e	-at	4g	ut
.	.	.	.	.	.	.	.	2g	ar-
.	.	.	.	.	.	8d	.	.	.
.	.	4E	ar-	2c	-sti-	8cL	.	.	.
.	.	.	.	.	.	8BJ	.	.	.
.	.	4F	-de-	.	.	4A	.	4a	-de-
=73	=73	=73	=73	=73	=73	=73	=73	=73	=73
*	*	*	*	*lig	*	*	*	*col	*
*	*	*	*	*col	*	*	*	*	*
4FF	Fac	2F	-at	1c	-ma-	4r	.	4.a	-at
4FF	ut	.	.	.	.	4A	cor	.	.
.	.	.	.	.	.	.	.	8g	.
*	*	*	*	*	*	*	*	*Xcol	*
2AA	ar-	2E	cor	.	.	2A	me-	4a	cor
.	.	.	.	.	.	.	.	2cc	me-
4GG	-de-	2G	me-	[2d	.	2D	-um	.	.
4GG	-at	.	.	.	.	.	.	4b	-um
=74	=74	=74	=74	=74	=74	=74	=74	=74	=74
2GG	cor	2G	-um	2d]	.	4r	.	4.b	in
*	*	*	*	*Xlig	*	*	*	*	*
.	.	.	.	.	.	4G	in	.	.
.	.	.	.	.	.	.	.	8a	.
*	*	*	*	*lig	*	*	*	*	*
2AA	me-	2.C	in	1c	-bi-	2E	a-	2cc	a-
*	*	*	*	*Xcol	*	*	*	*	*
2FF	-um	.	.	.	.	2F	-man-	2a	-man-
.	.	4C	a-	.	.	.	.	.	.
=75	=75	=75	=75	=75	=75	=75	=75	=75	=75
*	*	*	*	*	*	*	*	*col	*
1GG	in	2G	-man-	1B	.	2D	-do	4.g	-do
*	*	*	*	*Xlig	*	*	*	*	*
.	.	.	.	.	.	.	.	8f	.
*	*	*	*	*	*	*	*	*Xcol	*
.	.	2D	-do,	.	.	2d	Chri-	4d	.
.	.	.	.	.	.	.	.	2g	Chri-
2D	a-	2r	.	2A	-lis	4d	-stum	.	.
.	.	.	.	.	.	[4d	De-	4f#i	.
!!LO:PB:g=original
=76	=76	=76	=76	=76	=76	=76	=76	=76	=76
*	*	*	*	*col	*	*	*	*	*
1E	-man-	1.r	.	1G	.	4d]	.	2g	-stum
.	.	.	.	.	.	2B	.	.	.
.	.	.	.	.	.	.	.	2g	De-
.	.	.	.	.	.	4.e	.	.	.
*	*	*	*	*lig	*	*	*	*	*
2C	-do	.	.	[2G	o-	.	.	4e	.
.	.	.	.	.	.	8dL	.	.	.
.	.	.	.	.	.	8c	.	[4g	.
.	.	.	.	.	.	8BJ	.	.	.
=77	=77	=77	=77	=77	=77	=77	=77	=77	=77
2E	Chri-	2r	.	2G]	.	2c	.	4g]	.
.	.	.	.	.	.	.	.	8fL	.
.	.	.	.	.	.	.	.	8eJ	.
1D	-stum	2r	.	1A	.	1d	-um,	1f	-um,
*	*	*	*	*Xlig	*	*	*	*	*
.	.	2A	ut	.	.	.	.	.	.
=78	=78	=78	=78	=78	=78	=78	=78	=78	=78
*	*	*col	*	*	*	*	*	*	*
2AA	De-	4.A	si-	1c	-dor	2e	ut	4r	.
*	*	*	*	*Xcol	*	*	*	*	*
.	.	.	.	.	.	.	.	4a	ut
.	.	8G	.	.	.	.	.	.	.
*	*	*Xcol	*	*	*	*	*	*	*
2AA	-um,	4E	-bi	.	.	4e	si-	2a	si-
.	.	4.A	.	.	.	8eL	.	.	.
.	.	.	.	.	.	8dJ	.	.	.
4C	ut	.	.	2A	.	8cL	-bi	4e	-bi
.	.	8GL	.	.	.	8BJ	.	.	.
4D	.	8F	.	.	.	4A	.	4f	.
.	.	8EJ	.	.	.	.	.	.	.
=79	=79	=79	=79	=79	=79	=79	=79	=79	=79
*	*	*	*	*lig	*	*	*	*	*
2GG	si-	4D	com-	2B	e-	2d	com-	2g	com-
.	.	4G	-pla-	.	.	.	.	.	.
2AA	-bi	4E	.	1A	.	2c	-pla-	4.cc	-pla-
*	*	*	*	*Xlig	*	*	*	*	*
.	.	4E	-ce-	.	.	.	.	.	.
.	.	.	.	.	.	.	.	8b	.
4AA	com-	2E	-am,	.	.	[2c	.	4a	.
4AA	-pla-	.	.	.	.	.	.	8gL	.
.	.	.	.	.	.	.	.	8fJ	.
!!LO:LB:g=original
=80	=80	=80	=80	=80	=80	=80	=80	=80	=80
2.C	.	2r	.	1.G	-rat	4c]	.	2e	.
.	.	.	.	.	.	4c	-ce-	.	.
.	.	2r	.	.	.	2c	-am,	8cL	.
.	.	.	.	.	.	.	.	8d	.
8BBL	.	.	.	.	.	.	.	8e	.
8AAJ	.	.	.	.	.	.	.	8fJ	.
2GG	.	2D	com-	.	.	[2B	com-	4.g	.
.	.	.	.	.	.	.	.	8a	.
=81	=81	=81	=81	=81	=81	=81	=81	=81	=81
1EE	.	2.E	-pla-	1G	ni-	4B]	.	4b	.
.	.	.	.	.	.	4.G	-pla-	4cc	.
.	.	.	.	.	.	.	.	4b	.
.	.	.	.	.	.	8F	.	.	.
.	.	2BB	.	.	.	2E	-ce-	4g	.
2FF	-ce-	.	.	2F	.	.	.	2a	-ce-
.	.	4AA	-ce-	.	.	4D	.	.	.
=82	=82	=82	=82	=82	=82	=82	=82	=82	=82
1.EE;	-am.	1.BB;	-am.	1.G;	-mis	1.E;	-am.	1.g;	-am.
=83||	=83||	=83||	=83||	=83||	=83||	=83||	=83||	=83||	=83||
*M2/2	*	*M2/2	*	*M2/2	*	*M2/2	*	*M2/2	*
*met(C|)	*	*met(C|)	*	*met(C|)	*	*met(C|)	*	*met(C|)	*
*	*	*	*	*	*	*	*Xedit	*	*
1r	.	1r	.	1r	.	2E	San-	1r	.
.	.	.	.	.	.	4.E	-cta	.	.
.	.	.	.	.	.	8F	.	.	.
=84	=84	=84	=84	=84	=84	=84	=84	=84	=84
1r	.	1r	.	1r	.	4G	ma-	2e	San-
.	.	.	.	.	.	2A	.	.	.
.	.	.	.	.	.	.	.	4.e	-cta
.	.	.	.	.	.	4c	-ter,	.	.
.	.	.	.	.	.	.	.	8f	.
!!LO:LB:g=original
=85	=85	=85	=85	=85	=85	=85	=85	=85	=85
1r	.	1r	.	1r	.	4B	i-	4g	ma-
.	.	.	.	.	.	4A	-stud	2a	.
.	.	.	.	.	.	4.c	a-	.	.
.	.	.	.	.	.	.	.	4cc	-ter,
.	.	.	.	.	.	8B	.	.	.
=86	=86	=86	=86	=86	=86	=86	=86	=86	=86
1r	.	1r	.	1r	.	4G	.	4b	i-
.	.	.	.	.	.	4A	.	4a	-stud
*	*	*	*	*	*	*	*	*col	*
.	.	.	.	.	.	2F	.	4.cc	a-
.	.	.	.	.	.	.	.	8b	.
*	*	*	*	*	*	*	*	*Xcol	*
=87	=87	=87	=87	=87	=87	=87	=87	=87	=87
1r	.	1r	.	1r	.	4E	.	4g	.
.	.	.	.	.	.	4.F	.	4a	.
.	.	.	.	.	.	.	.	2f	.
.	.	.	.	.	.	8GL	.	.	.
.	.	.	.	.	.	8A	.	.	.
.	.	.	.	.	.	8BJ	.	.	.
=88	=88	=88	=88	=88	=88	=88	=88	=88	=88
1r	.	1r	.	1r	.	1c	-gas,	1e	-gas,
=89	=89	=89	=89	=89	=89	=89	=89	=89	=89
*	*	*	*edit	*	*	*	*	*	*
2.C	Cru-	2.E	Cru-	1G	in	2.c	cru-	2.e	cru-
4C	-ci-	4E	-ci-	.	.	4c	-ci-	4e	-ci-
!!LO:PB:g=original
=90	=90	=90	=90	=90	=90	=90	=90	=90	=90
2C	-fi-	2G	-fi-	1G	ve-	2c	-fi-	2e	-fi-
2C	-xi	2E	-xi	.	.	2c	-xi	2g	-xi
=91	=91	=91	=91	=91	=91	=91	=91	=91	=91
2FF	fi-	2C	fi-	1A	-sti-	2c	fi-	2f	fi-
2FF	-ge	2C	-ge	.	.	2A	-ge	2f	-ge
=92	=92	=92	=92	=92	=92	=92	=92	=92	=92
1GG	pla-	1G	pla-	1B	-men-	2D	pla-	1d	pla-
.	.	.	.	.	.	4.G	.	.	.
.	.	.	.	.	.	8A	.	.	.
=93	=93	=93	=93	=93	=93	=93	=93	=93	=93
1GG	-gas.	1D	-gas.	1G	-tis	1B	-gas	1d	-gas
=94	=94	=94	=94	=94	=94	=94	=94	=94	=94
1r	.	1r	.	1r	.	2A	cor-	8cL	cor-
.	.	.	.	.	.	.	.	8d	.
.	.	.	.	.	.	.	.	8e	.
.	.	.	.	.	.	.	.	8fJ	.
.	.	.	.	.	.	4B	-di	4g	-di
.	.	.	.	.	.	4c	.	4a	.
=95	=95	=95	=95	=95	=95	=95	=95	=95	=95
1r	.	1r	.	1r	.	2d	me-	2b	me-
.	.	.	.	.	.	4A	-o	4cc	-o
.	.	.	.	.	.	[4c	va-	[4a	va-
!!LO:LB:g=original
=96	=96	=96	=96	=96	=96	=96	=96	=96	=96
1r	.	1r	.	1r	.	4c]	.	4a]	.
.	.	.	.	.	.	8BL	.	8gL	.
.	.	.	.	.	.	8AJ	.	8fJ	.
.	.	.	.	.	.	8GL	.	8eL	.
.	.	.	.	.	.	8FJ	.	8dJ	.
.	.	.	.	.	.	[4A	.	[4f	.
=97	=97	=97	=97	=97	=97	=97	=97	=97	=97
1r	.	1r	.	1r	.	4A]	.	4f]	.
.	.	.	.	.	.	4G	.	2e	.
.	.	.	.	.	.	2F	-li-	.	.
.	.	.	.	.	.	.	.	4d	-li-
=98	=98	=98	=98	=98	=98	=98	=98	=98	=98
1r	.	1r	.	1r	.	1E	-de.	1e	-de.
=99	=99	=99	=99	=99	=99	=99	=99	=99	=99
*	*	*	*	*lig	*	*	*	*	*
2AA	Tu-	2C	Tu-	[1E	e-	2A	Tu-	2e	Tu-
2AA	-i	2C	-i	.	.	2A	-i	2e	-i
=100	=100	=100	=100	=100	=100	=100	=100	=100	=100
1GG	na-	1BB	na-	1E]	.	1B	na-	1g	na-
=101	=101	=101	=101	=101	=101	=101	=101	=101	=101
1FF	-ti	2C	-ti	1F	.	2A	-ti	1a	-ti
*	*	*	*	*Xlig	*	*	*	*	*
.	.	2F	vul-	.	.	2c	vul-	.	.
!!LO:LB:g=original
=102	=102	=102	=102	=102	=102	=102	=102	=102	=102
*	*	*	*	*lig	*	*	*	*	*
2C	vul-	1G	-ne-	2E	.	2c	-ne-	2g	vul-
2BB	-ne-	.	.	2D	.	[2d	-ra-	2b	-ne-
*	*	*	*	*Xlig	*	*	*	*	*
=103	=103	=103	=103	=103	=103	=103	=103	=103	=103
*	*	*	*	*lig	*	*	*	*	*
2AA	-ra-	1A	-ra-	1E	-ius;	4d]	.	2cc	-ra-
.	.	.	.	.	.	8cL	.	.	.
.	.	.	.	.	.	8BJ	.	.	.
2AA	-ti	.	.	.	.	2c	.	8ccL	.
.	.	.	.	.	.	.	.	8b	.
.	.	.	.	.	.	.	.	8a	.
.	.	.	.	.	.	.	.	8gJ	.
=104	=104	=104	=104	=104	=104	=104	=104	=104	=104
1r	.	1F	-ti	1D	.	1d	-ti	1f	-ti
*	*	*	*	*Xlig	*	*	*	*	*
=105	=105	=105	=105	=105	=105	=105	=105	=105	=105
2D	iam	2r	.	1r	.	1r	.	1r	.
4BB	di-	2G	iam	.	.	.	.	.	.
[4C	-gnan-	.	.	.	.	.	.	.	.
=106	=106	=106	=106	=106	=106	=106	=106	=106	=106
4C]	.	4E	di-	1r	.	1r	.	1r	.
4AA	-tis	2F	-gnan-	.	.	.	.	.	.
2D	pro	.	.	.	.	.	.	.	.
.	.	4D	-tis	.	.	.	.	.	.
=107	=107	=107	=107	=107	=107	=107	=107	=107	=107
4BB	me	2G	pro	1r	.	1r	.	1r	.
2C	pa-	.	.	.	.	.	.	.	.
.	.	4E	me	.	.	.	.	.	.
4AA	.	4F	pa-	.	.	.	.	.	.
!!LO:PB:g=original
=108	=108	=108	=108	=108	=108	=108	=108	=108	=108
4BB	.	4D	.	1r	.	1r	.	1r	.
4C	.	2G	.	.	.	.	.	.	.
2AA	.	.	.	.	.	.	.	.	.
.	.	4F#i	.	.	.	.	.	.	.
=109	=109	=109	=109	=109	=109	=109	=109	=109	=109
1GG	-ti	1G	-ti	1r	.	1r	.	1r	.
=110	=110	=110	=110	=110	=110	=110	=110	=110	=110
2GG	vim	2D	vim	1G	et	2B	vim	2g	vim
2GG	a-	2D	a-	.	.	2B	a-	2g	a-
=111	=111	=111	=111	=111	=111	=111	=111	=111	=111
*	*	*	*	*	*	*col	*	*	*
1C	-mo-	4E	-mo-	1G	cir-	4.c	-mo-	1e	-mo-
*	*	*col	*	*	*	*	*	*	*
.	.	4.G	.	.	.	.	.	.	.
.	.	.	.	.	.	8B	.	.	.
*	*	*	*	*	*	*Xcol	*	*	*
.	.	.	.	.	.	2G	.	.	.
.	.	8FL	.	.	.	.	.	.	.
*	*	*Xcol	*	*	*	*	*	*	*
.	.	8E	.	.	.	.	.	.	.
.	.	8DJ	.	.	.	.	.	.	.
=112	=112	=112	=112	=112	=112	=112	=112	=112	=112
1AA	-ris	1C	-ris	1A	-cum-	2.c	-ris	1e	-ris
.	.	.	.	.	.	4B	.	.	.
=113	=113	=113	=113	=113	=113	=113	=113	=113	=113
2AA	im-	4C	im-	1c	-da-	4.A	im-	4e	im-
.	.	4AA	.	.	.	.	.	4c	.
.	.	.	.	.	.	8G	.	.	.
*	*	*col	*	*	*	*	*	*	*
2AA	-pri-	4.C	-pri-	.	.	2A	-pri-	4.e	-pri-
.	.	8D	.	.	.	.	.	8f	.
*	*	*Xcol	*	*	*	*	*	*	*
!!LO:LB:g=original
=114	=114	=114	=114	=114	=114	=114	=114	=114	=114
1EE	-me.	1E	-me.	[1B	-bant	1G	-me.	2.g	-me.
.	.	.	.	.	.	.	.	8fL	.
.	.	.	.	.	.	.	.	8eJ	.
=115	=115	=115	=115	=115	=115	=115	=115	=115	=115
2GG	Fac	1r	.	1B]	.	1r	.	1d	.
2GG	me	.	.	.	.	.	.	.	.
=116	=116	=116	=116	=116	=116	=116	=116	=116	=116
2AA	ve-	1r	.	1r	.	2r	.	1r	.
4.GG	-re	.	.	.	.	2G	Fac	.	.
8AA	.	.	.	.	.	.	.	.	.
=117	=117	=117	=117	=117	=117	=117	=117	=117	=117
4BB	te-	1r	.	1r	.	2G	me	1r	.
2C	.	.	.	.	.	.	.	.	.
.	.	.	.	.	.	2A	ve-	.	.
4D	-cum	.	.	.	.	.	.	.	.
=118	=118	=118	=118	=118	=118	=118	=118	=118	=118
4.E	fle-	1r	.	1r	.	2G	-re	1r	.
8F	.	.	.	.	.	.	.	.	.
4G	.	.	.	.	.	4B	te-	.	.
[4F	.	.	.	.	.	[4c	.	.	.
=119	=119	=119	=119	=119	=119	=119	=119	=119	=119
4F]	.	1r	.	1r	.	4c]	.	1r	.
8EL	.	.	.	.	.	4d	-cum	.	.
8DJ	.	.	.	.	.	.	.	.	.
2C	.	.	.	.	.	8eL	fle-	.	.
.	.	.	.	.	.	8d	.	.	.
.	.	.	.	.	.	8c	.	.	.
.	.	.	.	.	.	8BJ	.	.	.
!!LO:LB:g=original
=120	=120	=120	=120	=120	=120	=120	=120	=120	=120
4F	.	1r	.	1r	.	8AL	.	1r	.
.	.	.	.	.	.	8GJ	.	.	.
4E	.	.	.	.	.	2c	.	.	.
2D	.	.	.	.	.	.	.	.	.
.	.	.	.	.	.	4B	.	.	.
=121	=121	=121	=121	=121	=121	=121	=121	=121	=121
*	*	*	*	*lig	*	*	*	*	*
1C	-re,	1r	.	[1G	e-	1c	-re.	2.e	Cru-
.	.	.	.	.	.	.	.	4e	-ci-
=122	=122	=122	=122	=122	=122	=122	=122	=122	=122
1r	.	1r	.	1G]	.	1r	.	4.g	-fi-
.	.	.	.	.	.	.	.	8f	.
.	.	.	.	.	.	.	.	4d	.
.	.	.	.	.	.	.	.	[4e	.
=123	=123	=123	=123	=123	=123	=123	=123	=123	=123
1r	.	1r	.	1A	.	1r	.	4e]	.
.	.	.	.	.	.	.	.	8fL	.
.	.	.	.	.	.	.	.	8eJ	.
.	.	.	.	.	.	.	.	8fL	.
.	.	.	.	.	.	.	.	8eJ	.
.	.	.	.	.	.	.	.	[4f	.
=124	=124	=124	=124	=124	=124	=124	=124	=124	=124
1r	.	1r	.	1B	.	1r	.	8fL]	.
.	.	.	.	.	.	.	.	8e	.
.	.	.	.	.	.	.	.	8d	.
.	.	.	.	.	.	.	.	8cJ	.
.	.	.	.	.	.	.	.	2d	-xo
!!LO:PB:g=original
=125	=125	=125	=125	=125	=125	=125	=125	=125	=125
1r	.	1r	.	1c	.	1r	.	2e	con-
*	*	*	*	*Xlig	*	*	*	*	*
.	.	.	.	.	.	.	.	4g	-do-
.	.	.	.	.	.	.	.	[4a	-le-
=126	=126	=126	=126	=126	=126	=126	=126	=126	=126
*	*	*	*	*lig	*	*	*	*	*
2D	do-	1r	.	1A	-am	1r	.	8a]L	.
.	.	.	.	.	.	.	.	8g	.
.	.	.	.	.	.	.	.	8f#i	.
.	.	.	.	.	.	.	.	8eJ	.
2D	-nec	.	.	.	.	.	.	2f#i	.
=127	=127	=127	=127	=127	=127	=127	=127	=127	=127
2E	e-	2B	Do-	1G	.	1r	.	1g	-re.
*	*	*	*	*Xlig	*	*	*	*	*
2E	-go	2B	-nec	.	.	.	.	.	.
=128	=128	=128	=128	=128	=128	=128	=128	=128	=128
2C	vi-	2c	e-	1r	.	1r	.	1r	.
*col	*	*	*	*	*	*	*	*	*
4.AA	-xe-	8cL	-go	.	.	.	.	.	.
.	.	8B	.	.	.	.	.	.	.
.	.	8A	.	.	.	.	.	.	.
8BB	.	8GJ	.	.	.	.	.	.	.
*Xcol	*	*	*	*	*	*	*	*	*
=129	=129	=129	=129	=129	=129	=129	=129	=129	=129
4C	.	4.A	vi-	1r	.	1r	.	1r	.
4D	.	.	.	.	.	.	.	.	.
.	.	8G	.	.	.	.	.	.	.
4C	.	8EL	-xe-	.	.	.	.	.	.
.	.	8F	.	.	.	.	.	.	.
[4E	.	8G	.	.	.	.	.	.	.
.	.	8AJ	.	.	.	.	.	.	.
!!LO:LB:g=original
=130	=130	=130	=130	=130	=130	=130	=130	=130	=130
4E]	.	4B	.	1r	.	1r	.	1r	.
4C	.	2A	.	.	.	.	.	.	.
2BB	.	.	.	.	.	.	.	.	.
.	.	4G#i	.	.	.	.	.	.	.
=131	=131	=131	=131	=131	=131	=131	=131	=131	=131
*	*	*	*	*lig	*	*	*	*	*
1AA	-ro.	1A	-ro.	[1E	flo-	4c	Iux-	2.e	Iux-
.	.	.	.	.	.	4c	-ta	.	.
.	.	.	.	.	.	8AL	cru-	.	.
.	.	.	.	.	.	8B	.	.	.
.	.	.	.	.	.	8c	.	4e	-ta
.	.	.	.	.	.	8dJ	.	.	.
=132	=132	=132	=132	=132	=132	=132	=132	=132	=132
4AA	Iux-	4A	Iux-	1E]	.	8eL	.	4e	cru-
.	.	.	.	.	.	8d	.	.	.
4AA	-ta	4A	-ta	.	.	8c	.	4e	-cem
.	.	.	.	.	.	8BJ	.	.	.
4AA	cru-	4A	cru-	.	.	4c	.	4a	te-
4AA	-cem	4A	-cem	.	.	4c	-cem	4a	-cum
=133	=133	=133	=133	=133	=133	=133	=133	=133	=133
4D	te-	4A	te-	[1F	.	4d	te-	2a	sta-
4D	-cum	4A	-cum	.	.	4d	-cum	.	.
2D	sta-	2F	sta-	.	.	4.d	sta-	4.a	-re,
.	.	.	.	.	.	8c	.	8g	.
=134	=134	=134	=134	=134	=134	=134	=134	=134	=134
*col	*	*	*	*	*	*	*	*	*
4.D	-re,	2D	-re,	1F]	.	2A	-re,	4f	.
.	.	.	.	.	.	.	.	8eL	.
8C	.	.	.	.	.	.	.	8dJ	.
*Xcol	*	*	*	*	*	*	*	*	*
2AA	.	2c	te	.	.	2A	te	2c	.
!!LO:LB:g=original
=135	=135	=135	=135	=135	=135	=135	=135	=135	=135
4GG	te	2B	li-	1G	.	4D	li-	4r	.
*	*	*	*	*Xlig	*	*	*	*	*
4GG	li-	.	.	.	.	4D	-ben-	4d	te
4C	-ben-	2c	-ben-	.	.	4E	-ter	4c	li-
4C	-ter	.	.	.	.	4C	so-	[4e	-ben-
=136	=136	=136	=136	=136	=136	=136	=136	=136	=136
4E	so-	2B	-ter	1G	-res	2G	-ci-	4e]	.
4E	-ci-	.	.	.	.	.	.	4g	-ter
2E	-a-	4G	so-	.	.	4.B	-a-	4g	so-
.	.	4G	-ci-	.	.	.	.	4g	-ci-
.	.	.	.	.	.	8c	.	.	.
=137	=137	=137	=137	=137	=137	=137	=137	=137	=137
1D	-re	4.A	-a-	1r	.	4.d	.	4.f	-a-
.	.	8G	.	.	.	8c	.	8e	.
.	.	4F	.	.	.	2A	.	8dL	.
.	.	.	.	.	.	.	.	8cJ	.
.	.	8EL	.	.	.	.	.	4d	-re
.	.	8DJ	.	.	.	.	.	.	.
=138	=138	=138	=138	=138	=138	=138	=138	=138	=138
*	*	*lig	*	*	*	*	*	*	*
4AA	in	2E	.	1r	.	4.c	.	4c	in
4C	plan-	.	.	.	.	.	.	2e	plan-
.	.	.	.	.	.	8B	.	.	.
2D	.	2F	.	.	.	8AL	.	.	.
*	*	*Xlig	*	*	*	*	*	*	*
.	.	.	.	.	.	8GJ	.	.	.
.	.	.	.	.	.	4A	.	4d	.
=139	=139	=139	=139	=139	=139	=139	=139	=139	=139
2G	-ctu	2E	-re	1r	.	2B	-re.	2e	-ctu
4E	de-	4r	.	.	.	2r	.	4r	.
4C	-si-	4E	in	.	.	.	.	4e	de-
!!LO:PB:g=original
=140	=140	=140	=140	=140	=140	=140	=140	=140	=140
4BB	.	4G	plan-	1r	.	1r	.	4d	-si-
4AA	.	4A	-ctu	.	.	.	.	4c	.
4GG	.	4B	de-	.	.	.	.	4B	.
*col	*	*	*	*	*	*	*	*	*
[4AA	.	4c	-si-	.	.	.	.	[4e	-de-
=141	=141	=141	=141	=141	=141	=141	=141	=141	=141
8AA]L	.	4B	.	1r	.	1r	.	4e]	.
8BB	.	.	.	.	.	.	.	.	.
*Xcol	*	*	*	*	*	*	*	*	*
8C	.	2A	.	.	.	.	.	8dL	.
8DJ	.	.	.	.	.	.	.	8cJ	.
2E	-de-	.	.	.	.	.	.	2B	-ro.
.	.	4G#i	-de-	.	.	.	.	.	.
=142	=142	=142	=142	=142	=142	=142	=142	=142	=142
1AA	-ro.	1A	-ro.	1r	.	2e	Vir-	2r	.
.	.	.	.	.	.	2c	-go	2e	Vir-
=143	=143	=143	=143	=143	=143	=143	=143	=143	=143
2AA	Vir-	1r	.	1r	.	4A	vir-	2c	-go
.	.	.	.	.	.	4A	-gi-	.	.
*	*	*	*	*	*	*col	*	*	*
2D	-go	.	.	.	.	4.A	-num	4f	vir-
.	.	.	.	.	.	.	.	4f	-gi-
.	.	.	.	.	.	8B	.	.	.
*	*	*	*	*	*	*Xcol	*	*	*
=144	=144	=144	=144	=144	=144	=144	=144	=144	=144
4C	vir-	1r	.	1r	.	4c	.	4e	-num
4C	-gi-	.	.	.	.	4c	pre-	4e	pre-
4F	-num	.	.	.	.	4.c	-cla-	2a	-cla-
4F	pre-	.	.	.	.	.	.	.	.
.	.	.	.	.	.	8d	.	.	.
!!LO:LB:g=original
=145	=145	=145	=145	=145	=145	=145	=145	=145	=145
2E	-cla-	1r	.	1r	.	2e	-ra,	2g	-ra,
2E	-ra,	.	.	.	.	4e	mi-	4g	mi-
.	.	.	.	.	.	8dL	-hi	4g	-hi
.	.	.	.	.	.	8cJ	.	.	.
=146	=146	=146	=146	=146	=146	=146	=146	=146	=146
*	*	*	*	*	*	*	*	*col	*
4E	mi-	1r	.	1r	.	4B	iam	4.g	iam
2E	-hi	.	.	.	.	4c	.	.	.
.	.	.	.	.	.	.	.	8a	.
*	*	*	*	*	*	*	*	*Xcol	*
.	.	.	.	.	.	4B	non	4b	non
4E	iam	.	.	.	.	[4e	sis	[4cc	sis
=147	=147	=147	=147	=147	=147	=147	=147	=147	=147
4E	nos	1r	.	1r	.	4e]	.	4cc]	.
4E	sis	.	.	.	.	8dL	.	8bL	.
.	.	.	.	.	.	8cJ	.	8aJ	.
2E	a-	.	.	.	.	4B	a-	4g	a-
.	.	.	.	.	.	[4e	-ma-	4a	.
=148	=148	=148	=148	=148	=148	=148	=148	=148	=148
2E	-ma-	1r	.	1r	.	4e]	.	4b	-ma-
.	.	.	.	.	.	4c	.	2a	.
2E	-ra,	.	.	.	.	2B	.	.	.
.	.	.	.	.	.	.	.	4g#i	.
=149	=149	=149	=149	=149	=149	=149	=149	=149	=149
*	*	*	*	*lig	*	*	*	*	*
1r	.	4AA	Fac	[1A	ro-	1A	-ra.	1a	-ra,
.	.	4AA	me	.	.	.	.	.	.
.	.	2AA	te-	.	.	.	.	.	.
!!LO:LB:g=original
=150	=150	=150	=150	=150	=150	=150	=150	=150	=150
*	*edit	*	*	*	*	*	*	*	*
4AA	fac	2C	-cum	1A_	.	1r	.	4e	fac
4AA	me	.	.	.	.	.	.	4e	me
4D	te-	4D	plan-	.	.	.	.	4f	te-
4C	-cum	4E	.	.	.	.	.	4e	-cum
=151	=151	=151	=151	=151	=151	=151	=151	=151	=151
4FF	plan-	4F	.	1A_	.	1r	.	8aL	plan-
.	.	.	.	.	.	.	.	8g	.
4C	.	2E	.	.	.	.	.	8f	.
.	.	.	.	.	.	.	.	8eJ	.
2D	-ge-	.	.	.	.	.	.	4f	.
.	.	4D	-ge-	.	.	.	.	4f	-ge-
=152	=152	=152	=152	=152	=152	=152	=152	=152	=152
1AA	-re.	2C	-re.	1A_	.	1r	.	1e	-re.
.	.	2E	Fac	.	.	.	.	.	.
=153	=153	=153	=153	=153	=153	=153	=153	=153	=153
*	*Xedit	*	*	*	*	*	*	*	*
4AA	Fac	4E	ut	1A_	.	4E	Fac	1r	.
4AA	ut	2A	por-	.	.	4E	tu	.	.
4D	por-	.	.	.	.	4F	por-	.	.
4C	-tem	4A	-tem	.	.	4E	-tem	.	.
=154	=154	=154	=154	=154	=154	=154	=154	=154	=154
4FF	Chri-	4c	Chri-	1A]	.	8AL	Chri-	1r	.
.	.	.	.	.	.	8G	.	.	.
4C	-sti	4c	-sti	.	.	8F	.	.	.
.	.	.	.	.	.	8EJ	.	.	.
4D	mor-	2A	mor-	.	.	4F	-sti	.	.
4F	.	.	.	.	.	4F	mor-	.	.
!!LO:LB:g=original
=155	=155	=155	=155	=155	=155	=155	=155	=155	=155
1C	-tem,	1c	-tem,	[1G	.	1E	-tem,	1r	.
=156	=156	=156	=156	=156	=156	=156	=156	=156	=156
4GG	pas-	1r	.	1G_	.	1r	.	4d	Pas-
4GG	-si-	.	.	.	.	.	.	4d	-si-
4C	-o-	.	.	.	.	.	.	4e	-o-
4BB	-nis	.	.	.	.	.	.	4d	-nis
=157	=157	=157	=157	=157	=157	=157	=157	=157	=157
4GG	e-	1r	.	1G]	.	1r	.	8gL	e-
*	*	*	*	*Xlig	*	*	*	*	*
.	.	.	.	.	.	.	.	8f	.
4BB	-ius	.	.	.	.	.	.	8e	.
.	.	.	.	.	.	.	.	8dJ	.
2C	sor-	.	.	.	.	.	.	4e	.
.	.	.	.	.	.	.	.	4e	-ius
=158	=158	=158	=158	=158	=158	=158	=158	=158	=158
*	*	*	*	*lig	*	*	*	*	*
1FF	-tem.	2A	et	1F	-sa-	1r	.	4.f	sor-
.	.	.	.	.	.	.	.	8e	.
.	.	2A	pla-	.	.	.	.	2c	-tem,
=159	=159	=159	=159	=159	=159	=159	=159	=159	=159
1r	.	4G	-gas	[1E	.	4B	et	4g	et
.	.	4E	re-	.	.	4B	pla-	4g	pla-
.	.	4C	-co-	.	.	4c	.	4e	.
.	.	4G	-le-	.	.	4B	-gas	4g	-gas
!!LO:LB:g=original
=160	=160	=160	=160	=160	=160	=160	=160	=160	=160
1r	.	2C	-re.	1E]	.	8eL	re-	4.g	re-
*	*	*	*	*Xlig	*	*	*	*	*
.	.	.	.	.	.	8d	.	.	.
.	.	.	.	.	.	8c	.	.	.
.	.	.	.	.	.	8BJ	.	8g	-co-
.	.	2r	.	.	.	4c	-co-	2g	-le-
.	.	.	.	.	.	4c	-le-	.	.
=161	=161	=161	=161	=161	=161	=161	=161	=161	=161
1r	.	1r	.	[1D	-rum	2d	-re.	2f	-re.
.	.	.	.	.	.	4A	Fac	4f	Fac
.	.	.	.	.	.	4A	me	4f	me
=162	=162	=162	=162	=162	=162	=162	=162	=162	=162
1r	.	1r	.	1D_	.	4B	pla-	4d	pla-
.	.	.	.	.	.	4A	-gis	4f	-gis
.	.	.	.	.	.	4d	vul-	8dL	vul-
.	.	.	.	.	.	.	.	8e	.
.	.	.	.	.	.	4d	-ne-	8f	.
.	.	.	.	.	.	.	.	8gJ	.
=163	=163	=163	=163	=163	=163	=163	=163	=163	=163
1r	.	1r	.	1D]	.	4.d	-ra-	4a	-ne-
.	.	.	.	.	.	.	.	2g	-ra-
.	.	.	.	.	.	8c	.	.	.
.	.	.	.	.	.	2A	.	.	.
.	.	.	.	.	.	.	.	4f#i	.
=164	=164	=164	=164	=164	=164	=164	=164	=164	=164
2GG	Cru-	2G	Cru-	1r	.	1B	-ri,	1g	-ri,
2GG	-ce	2G	-ce	.	.	.	.	.	.
!!LO:LB:g=original
=165	=165	=165	=165	=165	=165	=165	=165	=165	=165
2C	hac	2.G	hac	1G	et	2c	cru-	2e	cru-
2E	in-	.	.	.	.	2B	-ce	2e	-ce
.	.	4G	in-	.	.	.	.	.	.
=166	=166	=166	=166	=166	=166	=166	=166	=166	=166
*	*	*	*	*lig	*	*	*	*	*
2D	-e-	2F	-e-	1A	li-	1d	hac	2f	hac
2D	-bri-	2F	-bri-	.	.	.	.	2f	in-
=167	=167	=167	=167	=167	=167	=167	=167	=167	=167
*col	*	*	*	*	*	*	*	*	*
4.C	-a-	2.G	-a-	1c	.	2e	in-	2e	-e-
*	*	*	*	*Xlig	*	*	*	*	*
8D	.	.	.	.	.	.	.	.	.
*Xcol	*	*	*	*	*	*	*	*	*
4E	.	.	.	.	.	4e	-e-	4g	-bri-
4F	.	4F	.	.	.	4A	-bri-	[4a	-a-
=168	=168	=168	=168	=168	=168	=168	=168	=168	=168
*	*	*	*	*lig	*	*	*	*	*
2C	.	4E	.	1c	-li-	1e	-a-	8a]L	.
.	.	.	.	.	.	.	.	8bJ	.
.	.	4C	.	.	.	.	.	4.cc	.
2AA	.	[2E	.	.	.	.	.	.	.
.	.	.	.	.	.	.	.	8b	.
.	.	.	.	.	.	.	.	4a	.
=169	=169	=169	=169	=169	=169	=169	=169	=169	=169
*lig	*	*	*	*	*	*	*	*	*
1EE	-ri,	4E]	.	1B	.	1e	-ri,	8bL	.
.	.	.	.	.	.	.	.	8a	.
.	.	8DL	.	.	.	.	.	8g	.
.	.	8CJ	.	.	.	.	.	8fJ	.
.	.	2BB	.	.	.	.	.	2g	.
!!LO:PB:g=original
=170	=170	=170	=170	=170	=170	=170	=170	=170	=170
1AA	.	1C	-ri,	1A	.	2e	ob	1a	-ri,
*Xlig	*	*	*	*Xlig	*	*	*	*	*
.	.	.	.	.	.	2c	a-	.	.
=171	=171	=171	=171	=171	=171	=171	=171	=171	=171
1r	.	2F	ob	2A	-a	2A	-mo-	1r	.
.	.	2E	a-	[2c	.	2G	.	.	.
=172	=172	=172	=172	=172	=172	=172	=172	=172	=172
2GG	ob	2D	-mo-	2c]	.	1d	-rem	2g	ob
2GG	a-	2D	-rem	2B	.	.	.	2g	a-
=173	=173	=173	=173	=173	=173	=173	=173	=173	=173
*	*	*col	*	*	*	*	*	*	*
4.AA	-mo-	4.C	fi-	[1c	.	4r	.	2e	-mo-
.	.	.	.	.	.	4A	fi-	.	.
8BB	.	8D	.	.	.	.	.	.	.
*	*	*Xcol	*	*	*	*	*	*	*
4C	.	4E	.	.	.	4G	.	4e	-rem
4FF	-rem	4F	.	.	.	4F	.	4a	fi-
=174	=174	=174	=174	=174	=174	=174	=174	=174	=174
4C	fi-	4E	.	1c_	.	4G	.	4g	.
4AA	-li-	2F	.	.	.	4C	.	2a	.
2FF	-i.	.	.	.	.	8FL	-li-	.	.
.	.	.	.	.	.	8G	.	.	.
.	.	8EL	-li-	.	.	8A	.	8gL	-li-
.	.	8DJ	.	.	.	8BJ	.	8fJ	.
!!LO:LB:g=original
=175	=175	=175	=175	=175	=175	=175	=175	=175	=175
2.AA	In-	1C	-i.	1c_	.	2c	-i.	2e	-i.
.	.	.	.	.	.	4A	In-	2r	.
4AA	-flam-	.	.	.	.	4A	-flam-	.	.
=176	=176	=176	=176	=176	=176	=176	=176	=176	=176
2AA	-ma-	2E	In-	1c]	.	8AL	-ma-	4cc	In-
.	.	.	.	.	.	8B	.	.	.
.	.	.	.	.	.	8c	.	4cc	-flam-
.	.	.	.	.	.	8dJ	.	.	.
2AA	-tus	2E	-flam-	.	.	2e	.	2cc	-ma-
=177	=177	=177	=177	=177	=177	=177	=177	=177	=177
*	*	*	*	*lig	*	*col	*	*	*
2EE	et	2.E	-ma-	[1G	con-	4.e	-tus	2b	-tus
.	.	.	.	.	.	8d	.	.	.
*	*	*	*	*	*	*Xcol	*	*	*
2EE	ac-	.	.	.	.	2B	.	4b	et
.	.	4E	-tus	.	.	.	.	4b	ac-
=178	=178	=178	=178	=178	=178	=178	=178	=178	=178
2GG	-cen-	2D	et	1G_	.	4r	.	2b	-cen-
.	.	.	.	.	.	4d	et	.	.
2GG	-sus,	4D	ac-	.	.	4d	ac-	4b	-sus,
.	.	[4D	-cen-	.	.	4d	-cen-	[4g	.
=179	=179	=179	=179	=179	=179	=179	=179	=179	=179
2BB	per-	4D]	.	1G]	.	4.d	-sus,	4g]	.
.	.	4D	-sus,	.	.	.	.	8fL	.
.	.	.	.	.	.	8c	.	8eJ	.
2BB	-te,	2D	per	.	.	2B	.	2d	.
!!LO:LB:g=original
=180	=180	=180	=180	=180	=180	=180	=180	=180	=180
2.AA	vir-	2E	te,	[1A	.	4r	.	4cc	per
.	.	.	.	.	.	2e	per	4cc	te,
.	.	2E	vir-	.	.	.	.	2cc	vir-
4AA	-go,	.	.	.	.	4e	te,	.	.
=181	=181	=181	=181	=181	=181	=181	=181	=181	=181
2C	sim	2E	-go,	1A]	.	2c	vir-	8ccL	.
*	*	*	*	*Xlig	*	*	*	*	*
.	.	.	.	.	.	.	.	8b	.
.	.	.	.	.	.	.	.	8a	.
.	.	.	.	.	.	.	.	8gJ	.
2D	de-	2D	.	.	.	4A	-go,	2f	-go,
.	.	.	.	.	.	4d	sim	.	.
=182	=182	=182	=182	=182	=182	=182	=182	=182	=182
*lig	*	*	*	*	*	*	*	*	*
2E	-fen-	2r	.	1G	-val-	2B	de-	4f	sim
.	.	.	.	.	.	.	.	4e	de-
2C	.	2E	sim	.	.	2c	-fen-	[2e	-fen-
*Xlig	*	*	*	*	*	*	*	*	*
=183	=183	=183	=183	=183	=183	=183	=183	=183	=183
1D	-sus.	4F	de-	1F	.	2A	-sus	4e]	.
.	.	2A	-fen-	.	.	.	.	8dL	.
.	.	.	.	.	.	.	.	8cJ	.
.	.	.	.	.	.	4r	.	2d	.
.	.	4D	.	.	.	4A	in	.	.
=184	=184	=184	=184	=184	=184	=184	=184	=184	=184
*	*	*col	*	*	*	*	*	*	*
1r	.	4.G	-sus	[1E	-li-	4B	di-	2e	-sus
.	.	.	.	.	.	4E	-e	.	.
.	.	8A	.	.	.	.	.	.	.
*	*	*Xcol	*	*	*	*	*	*	*
.	.	4B	in	.	.	4.G	iu-	4r	.
.	.	4c	.	.	.	.	.	4e	in
.	.	.	.	.	.	8A	.	.	.
!!LO:PB:g=original
=185	=185	=185	=185	=185	=185	=185	=185	=185	=185
1r	.	4B	di-	1E]	.	4B	-di-	4.g	di-
.	.	4E	-e	.	.	4c	.	.	.
.	.	.	.	.	.	.	.	8a	.
.	.	4r	.	.	.	4B	.	4b	-e
.	.	4C	iu-	.	.	4E	.	4cc	iu-
=186	=186	=186	=186	=186	=186	=186	=186	=186	=186
1r	.	4G	-di-	[1E	-um.	4B	.	4b	-di-
.	.	4C	-ci-	.	.	4c	.	4e	.
.	.	4G	-i.	.	.	4B	.	4b	.
.	.	4r	.	.	.	[4e	.	[4cc	.
=187	=187	=187	=187	=187	=187	=187	=187	=187	=187
1r	.	4.C	Fac	1E_	.	4e]	.	8cc]L	.
.	.	.	.	.	.	.	.	8bJ	.
.	.	.	.	.	.	4c	.	2a	.
.	.	8D	.	.	.	.	.	.	.
.	.	2E	me	.	.	2B	-ci-	.	.
.	.	.	.	.	.	.	.	4g#i	-ci-
=188	=188	=188	=188	=188	=188	=188	=188	=188	=188
*	*	*col	*	*	*	*	*	*	*
2AA	Fac	2.C	cru-	1E]	.	1A	-i.	1a	-i.
2AA	me	.	.	.	.	.	.	.	.
.	.	4C	-ce	.	.	.	.	.	.
*	*	*Xcol	*	*	*	*	*	*	*
=189	=189	=189	=189	=189	=189	=189	=189	=189	=189
2AA	cru-	4C	cu-	1r	.	2c	Fac	2e	Fac
.	.	4C	-sto-	.	.	.	.	.	.
4GG	.	4E	-di-	.	.	4B	me	4g	me
[4AA	-ce	4C	.	.	.	4c	.	4e	.
!!LO:LB:g=original
=190	=190	=190	=190	=190	=190	=190	=190	=190	=190
4AA]	.	2AA	-ri,	1r	.	4c	cru-	2c	cru-
2C	cu-	.	.	.	.	8BL	.	.	.
.	.	.	.	.	.	8AJ	.	.	.
.	.	2r	.	.	.	2G	-ce	4.e	-ce
8BBL	-sto-	.	.	.	.	.	.	.	.
8AAJ	.	.	.	.	.	.	.	8f	.
=191	=191	=191	=191	=191	=191	=191	=191	=191	=191
2GG	-di-	2G	mor-	1r	.	4B	cu-	8gL	cu-
.	.	.	.	.	.	.	.	8aJ	.
.	.	.	.	.	.	4B	-sto-	4b	-sto-
2AA	.	4E	-te	.	.	2A	-di-	2cc	-di-
.	.	4C	.	.	.	.	.	.	.
=192	=192	=192	=192	=192	=192	=192	=192	=192	=192
2EE	-ri,	4G	Chri-	1r	.	2G	-ri,	2b	-ri,
*	*	*col	*	*	*	*	*	*	*
.	.	4.B	.	.	.	.	.	.	.
4r	.	.	.	.	.	4G	mor-	4b	mor-
.	.	8AL	.	.	.	.	.	.	.
*	*	*Xcol	*	*	*	*	*	*	*
4GG	mor-	8G	.	.	.	4B	-te	4b	-te
.	.	8FJ	.	.	.	.	.	.	.
=193	=193	=193	=193	=193	=193	=193	=193	=193	=193
4.AA	-te	2E	.	1r	.	4.c	Chri-	2a	Chri-
8BB	.	.	.	.	.	8d	.	.	.
2C	Chri-	2c	-sti	.	.	2e	-sti	2g	-sti
=194	=194	=194	=194	=194	=194	=194	=194	=194	=194
*	*	*	*	*	*	*	*	*col	*
2E	-sti	2.B	pre-	1r	.	2e	pre-	4.g	pre-
.	.	.	.	.	.	.	.	8a	.
*	*	*	*	*	*	*	*	*Xcol	*
4E	pre-	.	.	.	.	4B	-mu-	4b	-mu-
4E	-mu-	4G	.	.	.	4e	.	4cc	.
!!LO:LB:g=original
=195	=195	=195	=195	=195	=195	=195	=195	=195	=195
1F	-ni-	2A	-mu-	1r	.	4c	-ni-	4a	-ni-
.	.	.	.	.	.	4A	.	2cc	.
.	.	2A	-ni-	.	.	4.c	.	.	.
.	.	.	.	.	.	.	.	8bL	.
.	.	.	.	.	.	8d	.	8aJ	.
=196	=196	=196	=196	=196	=196	=196	=196	=196	=196
1E	-ri,	1B	-ri,	1r	.	2.e	-ri,	1g	-ri,
.	.	.	.	.	.	8dL	.	.	.
.	.	.	.	.	.	8cJ	.	.	.
=197	=197	=197	=197	=197	=197	=197	=197	=197	=197
2E	con-	2r	.	1r	.	2B	.	2g	con-
2E	-fo-	2G	con-	.	.	2c	con-	2g	-fo-
=198	=198	=198	=198	=198	=198	=198	=198	=198	=198
2D	-ve-	2A	-fo-	1r	.	2d	-fo-	2f	-ve-
4C	-ri	4c	-ve-	.	.	8GL	-ve-	4e	-ri
.	.	.	.	.	.	8A	.	.	.
4GG	.	[4B	-ri	.	.	8B	.	[4d	gra-
.	.	.	.	.	.	8cJ	.	.	.
=199	=199	=199	=199	=199	=199	=199	=199	=199	=199
4BB	gra-	4B]	.	1r	.	4d	.	4d]	.
4C	.	2G	gra-	.	.	2c	.	4e	.
2D	-ti-	.	.	.	.	.	.	4.f	.
.	.	4F	-ti-	.	.	4B	.	.	.
.	.	.	.	.	.	.	.	8d	.
!!LO:PB:g=original
=200	=200	=200	=200	=200	=200	=200	=200	=200	=200
2.C	-a.	[1G	-a.	1r	.	4c	-ri	4e	.
*	*	*	*	*	*	*	*	*col	*
.	.	.	.	.	.	2e	.	4.g	-ti-
.	.	.	.	.	.	.	.	8a	.
*	*	*	*	*	*	*	*	*Xcol	*
8BBL	.	.	.	.	.	8dL	.	[4cc	-a.
8AAJ	.	.	.	.	.	8cJ	.	.	.
=201	=201	=201	=201	=201	=201	=201	=201	=201	=201
1GG	.	1G]	.	1r	.	2.d	gra-	4cc]	.
.	.	.	.	.	.	.	.	8bL	.
.	.	.	.	.	.	.	.	8aJ	.
.	.	.	.	.	.	.	.	2b	.
.	.	.	.	.	.	4d	-ti-	.	.
=202	=202	=202	=202	=202	=202	=202	=202	=202	=202
2.D	Quan-	2.F	Quan-	1r	.	2d	-a.	2.a	Quan-
.	.	.	.	.	.	4d	Quan-	.	.
4D	-do	4F	-do	.	.	4d	-do	4a	-do
=203	=203	=203	=203	=203	=203	=203	=203	=203	=203
2GG	cor-	2G	cor-	1r	.	2d	cor-	2b	cor-
4C	-pus	4E	-pus	.	.	4e	-pus	4g	-pus
4C	mo-	4E	mo-	.	.	4e	mo-	4g	mo-
=204	=204	=204	=204	=204	=204	=204	=204	=204	=204
4C	-ri-	4E	-ri-	1r	.	4e	-ri-	4g	-ri-
2AA	-e-	2E	-e-	.	.	2c	-e-	2a	-e-
4D	-tur,	4F	-tur,	.	.	4d	-tur,	4f	-tur,
!!LO:LB:g=original
=205	=205	=205	=205	=205	=205	=205	=205	=205	=205
4D	fac	4D	fac	1r	.	4d	fac	4f	fac
4D	ut	4D	ut	.	.	4d	ut	4f	ut
4.GG	a-	4.D	a-	.	.	4.B	a-	4.g	a-
8GG	-ni-	8C	-ni-	.	.	8B	-ni-	8e	-ni-
=206	=206	=206	=206	=206	=206	=206	=206	=206	=206
4AA	-me	4C	-me	1r	.	4c	-me	4e	-me
4AA	do-	4C	do-	.	.	4c	do-	4e	do-
2FF	-ne-	2C	-ne-	.	.	2A	-ne-	2f	-ne-
=207	=207	=207	=207	=207	=207	=207	=207	=207	=207
2GG	-tur	2BB	-tur	1r	.	2B	-tur	4d	-tur
.	.	.	.	.	.	.	.	2d	pa-
4BB	pa-	4D	pa-	.	.	4G	pa-	.	.
4BB	-ra-	4D	-ra-	.	.	4G	-ra-	4d	-ra-
=208	=208	=208	=208	=208	=208	=208	=208	=208	=208
*col	*	*	*	*	*	*	*	*	*
4.AA	-di-	4E	-di-	1r	.	4A	-di-	4.c	-di-
*	*	*col	*	*	*	*	*	*	*
.	.	4.A	.	.	.	4.c	.	.	.
8BB	.	.	.	.	.	.	.	8d	.
*Xcol	*	*	*	*	*	*	*	*	*
4C	-si	.	.	.	.	.	.	4e	-si
.	.	8G	.	.	.	8B	.	.	.
*	*	*Xcol	*	*	*	*	*	*	*
[4D	glo-	4F	-si	.	.	[4A	-si	[4f	glo-
=209	=209	=209	=209	=209	=209	=209	=209	=209	=209
4D]	.	4D	glo-	1r	.	4A]	.	4f]	.
4F	.	2A	.	.	.	2d	glo-	8eL	.
.	.	.	.	.	.	.	.	8dJ	.
2E	-ri-	.	.	.	.	.	.	2g	-ri-
.	.	4G	-ri-	.	.	4c#i	-ri-	.	.
!!LO:LB:g=original
=210	=210	=210	=210	=210	=210	=210	=210	=210	=210
2D	-a.	2A	-a.	1r	.	2d	-a.	4f	-a.
.	.	.	.	.	.	.	.	4a	A-
4E	A-	2E	.	.	.	4B	.	4g	.
4C	.	.	.	.	.	4c	.	[4e	.
=211	=211	=211	=211	=211	=211	=211	=211	=211	=211
2.D	.	2F	A-	1r	.	[1A	A-	4e]	.
.	.	.	.	.	.	.	.	8dL	.
.	.	.	.	.	.	.	.	8cJ	.
.	.	8FL	.	.	.	.	.	2d	.
.	.	8G	.	.	.	.	.	.	.
8CL	.	8A	.	.	.	.	.	.	.
8BBJ	.	8BJ	.	.	.	.	.	.	.
=212	=212	=212	=212	=212	=212	=212	=212	=212	=212
*	*	*	*	*	*edit	*	*	*	*
1AA	.	1c	.	[1El	-men.	1A]	.	[1el	-men.
=213	=213	=213	=213	=213	=213	=213	=213	=213	=213
*	*	*	*	*	*	*lig	*	*	*
2GG	.	2B	.	1E_	.	2B	.	1e_	.
2AA	.	2A	.	.	.	2c	.	.	.
*	*	*	*	*	*	*Xlig	*	*	*
=214	=214	=214	=214	=214	=214	=214	=214	=214	=214
1EEl	-men.	1Gl	-men.	1E]	.	1Bl	-men.	1e]	.
==	==	==	==	==	==	==	==	==	==
*-	*-	*-	*-	*-	*-	*-	*-	*-	*-
!!!system-decoration: [*]
!!!RDF**kern: j = editorial accidental, optional, paren up
!!!RDF**kern: i = editorial accidental
!!!RDF**kern: l = terminal breve
!!!PTL: Gaspar van Weerbeke: Collected Works. IV. Motets
!!!ISBN: 978-1-59551-500-1 / 1-59551-500-3
!!!PPR: American Institute of Musicology
!!!PC#: Corpus Mensurabilis Musicae 106/IV
!!!PDT: 2010
!!!PED: Pavanello, Agnese
!!!YEC: Copyright 2008, Pavanello, Agnese
!!!YEM: CC-BY-NC 4.0 (https://creativecommons.org/licenses/by-nc/4.0/legalcode)
!!!EED: Mair-Gruber, Roland
!!!EEV: 2021/09/23
